icons/24x24_settings_outline.svg

<svg xmlns="http://www.w3.org/2000/svg" width="24" height="24" viewBox="0 0 24 24">
  <path d="M12.5,14 C13.6045695,14 14.5,13.1045695 14.5,12 C14.5,10.8954305 13.6045695,10 12.5,10 C11.3954305,10 10.5,10.8954305 10.5,12 C10.5,13.1045695 11.3954305,14 12.5,14 Z M11.0139293,2.1 C11.4739293,2.03 11.9439293,2 12.4239293,2 C12.9039293,2 13.3739293,2.03 13.8339293,2.1 C14.7339293,2.22 15.3739293,2.93 15.5639293,3.81 C15.6739293,4.34 16.0039293,4.83 16.5139293,5.13 C16.8239293,5.31 17.1739293,5.4 17.5139293,5.4 C17.7239293,5.4 17.9239293,5.37 18.1239293,5.31 C18.3629293,5.233 18.6099293,5.194 18.8509293,5.194 C19.4269293,5.194 19.9779293,5.418 20.3439293,5.89 C20.8939293,6.61 21.3439293,7.4 21.6939293,8.24 C22.0139293,9.04 21.8339293,10.01 21.1639293,10.56 C20.7439293,10.9 20.4639293,11.41 20.4239293,12 C20.4639293,12.59 20.7439293,13.1 21.1639293,13.44 C21.8339293,13.99 22.0139293,14.96 21.6939293,15.76 C21.3439293,16.6 20.8939293,17.39 20.3439293,18.11 C19.9779293,18.582 19.4269293,18.806 18.8509293,18.806 C18.6099293,18.806 18.3629293,18.767 18.1239293,18.69 C17.9239293,18.63 17.7239293,18.6 17.5139293,18.6 C17.1739293,18.6 16.8239293,18.69 16.5139293,18.87 C16.0039293,19.17 15.6739293,19.66 15.5639293,20.19 C15.3739293,21.07 14.7339293,21.78 13.8339293,21.9 C13.3739293,21.97 12.9039293,22 12.4239293,22 C11.9439293,22 11.4739293,21.97 11.0139293,21.9 C10.1139293,21.78 9.47392926,21.07 9.28392926,20.19 C9.17392926,19.66 8.84392926,19.17 8.33392926,18.87 C8.02392926,18.69 7.67392926,18.6 7.33392926,18.6 C7.12392926,18.6 6.92392926,18.63 6.72392926,18.69 C6.48492926,18.767 6.23892926,18.806 5.99692926,18.806 C5.42092926,18.806 4.86992926,18.582 4.50392926,18.11 C3.95392926,17.39 3.50392926,16.6 3.15392926,15.76 C2.83392926,14.96 3.01392926,13.99 3.68392926,13.44 C4.10392926,13.1 4.38392926,12.59 4.42392926,12 C4.38392926,11.41 4.10392926,10.9 3.68392926,10.56 C3.01392926,10.01 2.83392926,9.04 3.15392926,8.24 C3.50392926,7.4 3.95392926,6.61 4.50392926,5.89 C4.86992926,5.418 5.42092926,5.194 5.99692926,5.194 C6.23892926,5.194 6.48492926,5.233 6.72392926,5.31 C6.92392926,5.37 7.12392926,5.4 7.33392926,5.4 C7.67392926,5.4 8.02392926,5.31 8.33392926,5.13 C8.84392926,4.83 9.17392926,4.34 9.28392926,3.81 C9.47392926,2.93 10.1139293,2.22 11.0139293,2.1 Z M12.5,16 C10.290861,16 8.5,14.209139 8.5,12 C8.5,9.790861 10.290861,8 12.5,8 C14.709139,8 16.5,9.790861 16.5,12 C16.5,14.209139 14.709139,16 12.5,16 Z M12.4239293,4 C12.0189293,4 11.6559293,4.025 11.3149293,4.077 C11.3009293,4.077 11.2609293,4.131 11.2389293,4.232 C11.0129293,5.319 10.3229293,6.28 9.34792926,6.854 C8.72992926,7.213 8.03592926,7.4 7.33392926,7.4 C6.93292926,7.4 6.53492926,7.342 6.14892926,7.226 C6.08792926,7.206 6.04892926,7.198 6.02392926,7.195 C5.62192926,7.736 5.27492926,8.35 4.99992926,9.009 C4.99792926,9.016 4.99792926,9.035 4.99992926,9.053 C5.82492926,9.742 6.34492926,10.767 6.41992926,11.865 L6.42792926,12 L6.41992926,12.135 C6.34492926,13.229 5.82892926,14.249 4.99992926,14.946 C4.99892926,14.966 5.00092926,14.993 5.01092926,15.018 C5.27392926,15.647 5.61692926,16.255 6.02392926,16.804 C6.05092926,16.802 6.07892926,16.797 6.11192926,16.786 C6.53492926,16.658 6.93292926,16.6 7.33392926,16.6 C8.03592926,16.6 8.72992926,16.787 9.33792926,17.141 C10.3229293,17.72 11.0129293,18.681 11.2419293,19.783 C11.2609293,19.869 11.3009293,19.923 11.3139293,19.933 C11.6559293,19.975 12.0189293,20 12.4239293,20 C12.8289293,20 13.1919293,19.975 13.5329293,19.923 C13.5469293,19.923 13.5869293,19.869 13.6089293,19.768 C13.8349293,18.681 14.5249293,17.72 15.4999293,17.146 C16.1179293,16.787 16.8119293,16.6 17.5139293,16.6 C17.9139293,16.6 18.3129293,16.658 18.6979293,16.774 C18.7609293,16.794 18.7989293,16.802 18.8229293,16.805 C19.2259293,16.264 19.5729293,15.65 19.8479293,14.991 C19.8509293,14.984 19.8499293,14.965 19.8489293,14.947 C19.0239293,14.258 18.5029293,13.233 18.4289293,12.135 L18.4189293,12 L18.4289293,11.865 C18.5029293,10.771 19.0189293,9.751 19.8479293,9.054 C19.8489293,9.034 19.8469293,9.007 19.8369293,8.982 C19.5739293,8.353 19.2309293,7.745 18.8239293,7.196 C18.7969293,7.198 18.7689293,7.203 18.7359293,7.214 C18.3129293,7.342 17.9139293,7.4 17.5139293,7.4 C16.8119293,7.4 16.1179293,7.213 15.5099293,6.859 C14.5249293,6.28 13.8349293,5.319 13.6059293,4.217 C13.5869293,4.131 13.5469293,4.077 13.5339293,4.067 C13.1919293,4.025 12.8289293,4 12.4239293,4 Z"/>
</svg>

<svg width="24" height="24" fill="none" xmlns="http://www.w3.org/2000/svg"><path d="M12.5 14a2 2 0 1 0 0-4 2 2 0 0 0 0 4ZM11.014 2.1c.46-.07.93-.1 1.41-.1.48 0 .95.03 1.41.1.9.12 1.54.83 1.73 1.71.11.53.44 1.02.95 1.32.31.18.66.27 1 .27.21 0 .41-.03.61-.09a2.38 2.38 0 0 1 .727-.116c.576 0 1.127.224 1.493.696.55.72 1 1.51 1.35 2.35.32.8.14 1.77-.53 2.32-.42.34-.7.85-.74 1.44.04.59.32 1.1.74 1.44.67.55.85 1.52.53 2.32-.35.84-.8 1.63-1.35 2.35-.366.472-.917.696-1.493.696a2.38 2.38 0 0 1-.727-.116c-.2-.06-.4-.09-.61-.09-.34 0-.69.09-1 .27-.51.3-.84.79-.95 1.32-.19.88-.83 1.59-1.73 1.71-.46.07-.93.1-1.41.1-.48 0-.95-.03-1.41-.1-.9-.12-1.54-.83-1.73-1.71-.11-.53-.44-1.02-.95-1.32-.31-.18-.66-.27-1-.27-.21 0-.41.03-.61.09a2.375 2.375 0 0 1-.727.116c-.576 0-1.127-.224-1.493-.696-.55-.72-1-1.51-1.35-2.35-.32-.8-.14-1.77.53-2.32.42-.34.7-.85.74-1.44-.04-.59-.32-1.1-.74-1.44-.67-.55-.85-1.52-.53-2.32.35-.84.8-1.63 1.35-2.35.366-.472.917-.696 1.493-.696.242 0 .488.039.727.116.2.06.4.09.61.09.34 0 .69-.09 1-.27.51-.3.84-.79.95-1.32.19-.88.83-1.59 1.73-1.71ZM12.5 16a4 4 0 1 1 0-8 4 4 0 0 1 0 8Zm-.076-12c-.405 0-.768.025-1.11.077-.013 0-.053.054-.075.155a4.009 4.009 0 0 1-1.891 2.622 4.008 4.008 0 0 1-2.014.546 4.11 4.11 0 0 1-1.185-.174.67.67 0 0 0-.125-.031A8.609 8.609 0 0 0 5 9.009a.156.156 0 0 0 0 .044 4.034 4.034 0 0 1 1.42 2.812l.008.135-.008.135A4.04 4.04 0 0 1 5 14.946a.176.176 0 0 0 .01.072 8.562 8.562 0 0 0 1.014 1.786.353.353 0 0 0 .088-.018 4.153 4.153 0 0 1 1.222-.186 3.99 3.99 0 0 1 2.004.541 4.019 4.019 0 0 1 1.904 2.642c.019.086.059.14.072.15a9.01 9.01 0 0 0 1.11.067c.405 0 .768-.025 1.109-.077.014 0 .054-.054.076-.155a4.008 4.008 0 0 1 1.89-2.622 4.008 4.008 0 0 1 2.015-.546c.4 0 .799.058 1.184.174.063.02.1.028.125.031a8.568 8.568 0 0 0 1.025-1.814.148.148 0 0 0 0-.044 4.03 4.03 0 0 1-1.42-2.812l-.01-.135.01-.135a4.035 4.035 0 0 1 1.42-2.811.176.176 0 0 0-.011-.072 8.562 8.562 0 0 0-1.013-1.786.353.353 0 0 0-.088.018 4.158 4.158 0 0 1-1.222.186 3.99 3.99 0 0 1-2.004-.541 4.019 4.019 0 0 1-1.904-2.642.308.308 0 0 0-.072-.15A9.01 9.01 0 0 0 12.424 4Z" fill="#000"/></svg>
